X:180
T:Polska efter Finnmark Hellstr\"om
R:sl\"angpolska
A:\"Osterg\"otland
Z:id:hn-sp-180
M:3/4
L:1/16
K:G
D3G G2B2 cBAB | G3B B2d2 d2B2 | A3c e2d2 d2B2 | dedc c4 B4 |
D3G G2B2 cBAB | G3B B2d2 d2B2 | A3c e2d2 d2B2 | dedc B8 :|
|: d3g g2f2 fgfe | c2e2 efed d2B2 | G3B B2d2 d2e2 | dcAF G2D2 B,2G,2 |
d3g g2f2 fgfe | A3c efed B4 | G2B2 B2d2 d2ed | cdef [g8B8] :|

